X:1
T:Title
%%score { ( 1 2 5 ) | ( 3 4 6 ) }
L:1/8
M:4/4
K:F
V:1 treble nm="Grand Piano"
V:2 treble 
V:5 treble 
V:3 bass 
V:4 bass 
V:6 bass 
V:1
 z4 z2[Q:1/4=100] z G | A<A A2 A2 GF | c2 c2 c3 A | [EG]2 [EG]2 [EG]2 [FA][GB] | %4
[M:9/8] [GB]2 A- A A2- A z G |[M:4/4] A2 A2 A2 GF | c2 c2 c4 | dffd c2 cB |[M:7/8] A2 [EG]2 F3 | %9
[M:1/8] c |[M:4/4] [Fd]<[Fd] [Fd]2 [Fc]3 [Fc] | [Fd]<[Fd] [Fd]2 c3 C | F<F F2 A2 GF | %13
[M:33/32] z/4 z/4 z/4 z/4 z/4 z/4 z/4 z/4 z/4 z/4 z/4 z/4 z/4 z/4 z/ [EG]/4-[EG]/4-[EG]/4-[EG]/4-[EG]/4-[EG]/4-[EG]/-<[EG]/ z/4 z/4 z/4 z/4 z/4 z/ | %14
[M:4/4] (3:2:2A3 A3 z4 | (3:2:2c3 c3 c4 | (9:8:8dff3/2d c/-c3/2c3/2B | %17
[M:7/8] A2- A/4 z/4 z/ z z z2 |] %18
V:2
 z4 z2 F2 | x8 | x8 | x8 |[M:9/8] z3 z3 z F2 |[M:4/4] x8 | x8 | x8 |[M:7/8] x7 |[M:1/8] x | %10
[M:4/4] x8 | x8 | x8 | %13
[M:33/32] z/4 z/4 z/4 z/4 z/4 z/4 z/4 z/4 z/4 z/4 z/4 z/4 z/4 z/4 z/4 z/4 z/4 z/4 z/4 z/4 z/4 z/4 z/4 z/ F/4-F/-<F/ z/4 z/ | %14
[M:4/4] z4 (5:4:4A2- A/ GF3/2 | x8 | x8 |[M:7/8] z2 [EG]2- [EG]/4 z/4 z/ z2 |] %18
V:3
 z4 z2 .A,2 | [F,CF]<[F,CF] [F,CF]2 [F,CF]2 [F,B,C][F,A,C] | [F,A,F]2 [F,A,F]2 [F,A,F]3 [F,CF] | %3
 [C,C]2 [C,C]2 [C,C]2 [C,C][C,C] |[M:9/8] [F,C]2 [F,CF]- [F,CF] [F,CF]2- [F,CF]F,-[F,B,] | %5
[M:4/4] [F,CF]2 [F,CF]2 [F,CF]2 [F,B,C][F,A,C] | [F,A,F]2 [F,A,F]2 [F,A,F]4 | %7
 [B,F][B,DF][B,DF][B,F] [A,CF]2 [A,CF][B,DG] |[M:7/8] [CF]2[K:bass] [C,B,]2 [F,A,]3 | %9
[M:1/8] [F,A,F] |[M:4/4] [B,,B,]<[B,,B,] [D,B,]2 [F,A,]3 [F,A,] | %11
 [B,,B,]<[B,,B,] [D,B,]2 [F,A,F]3 [F,A,] | [F,A,C]<[F,A,C] [F,A,C]2 [F,CF]2 [F,B,C][F,A,C] | %13
[M:33/32] [G,=B,]/4-[G,B,]/4-[G,B,]/4-[G,B,]/4-[G,B,]/-<[G,B,]/G,,/4-G,,/4-G,,/4-G,,/4-G,,/-<G,,/ z/4 z/4 z/4 z/4 z/4 z/4 z/ A,/-<A,/-[F,-A,_B,-F-]/[F,B,F]3/4 | %14
[M:4/4] (3:2:2[F,CF]3 [F,CF]3 z4 | (3:2:2[F,A,F]3 [F,A,F]3 [F,A,F]4 | %16
 (9:8:8[B,F][B,DF][B,DF]3/2[B,F] [A,CF]/-[A,CF]3/2[A,CF]3/2[B,DG] | %17
[M:7/8][K:bass] [CF]2- [CF]/4 z/4 z/ z z z2 |] %18
V:4
 z4 z2 F,-[F,B,] | x8 | x8 | x8 |[M:9/8] z3 z3 z .A,2 |[M:4/4] x8 | x8 | x8 | %8
[M:7/8] x2[K:bass] x5 |[M:1/8] x |[M:4/4] x8 | x8 | x8 | %13
[M:33/32] z/4 z/4 z/4 z/4 z/4 z/4 z/4 z/4 z/4 z/4 z/4 z/4 z/4 z/4 z/4 z/4 z/4 z/4 z/4 z/4 z/4 z/4 z/ F,/-<F,/ z/4 z/4 z/4 z/ | %14
[M:4/4] z4 (5:4:4[F,CF]2- [F,CF]/ [F,B,C][F,A,C]3/2 | x8 | x8 |[M:7/8][K:bass] z z z2 [F,A,]3 |] %18
V:5
 x8 | x8 | x8 | x8 |[M:9/8] x9 |[M:4/4] x8 | x8 | x8 |[M:7/8] x7 |[M:1/8] x |[M:4/4] x8 | x8 | x8 | %13
[M:33/32] D/4-D/4-D/4-D/4-D/-<D/[=B,DFG]/4-[B,DFG]/4-[B,DFG]/4-[B,DFG]/4-[B,DFG]/-<[B,DFG]/C/4-C/4-C/-<C/_B,3/4 z/4 z/ G/4-G/-<G/ | %14
[M:4/4] x8 | x8 | x8 |[M:7/8] z z z2 F3 |] %18
V:6
 x8 | x8 | x8 | x8 |[M:9/8] x9 |[M:4/4] x8 | x8 | x8 |[M:7/8] x2[K:bass] x5 |[M:1/8] x | %10
[M:4/4] x8 | x8 | x8 | %13
[M:33/32] z/4 z/4 z/4 z/4 z/4 z/4 z/4 z/4 z/4 z/4 z/4 z/4 z/4 z/4 z/ C,/4-C,/4-C,/4-C,/4-C,/4-C,/4-C,/-<C,/ z/4 z/4 z/4 z/4 z/4 z/ | %14
[M:4/4] x8 | x8 | x8 |[M:7/8][K:bass] z2 [C,B,]2- [C,B,]/4 z/4 z/ z2 |] %18

